X: 37
T: Chu ge
%%abc-version 2.0
%%abcx-abcm2ps-target-version 5.9.1 (29 Sep 2008)
%%abc-creator hum2abc beta
%%abcx-conversion-date 2013/10/02 07:44:27
%%abc-edited-by Helmut Schaffrath
%%humdrum-veritas 1146892057
%%humdrum-veritas-data 1753041365
%%continueall 1
%%barnumbers 0
L: 1/8
M: 2/4
K: D
B, B, B, B, [I:setbarnb 1]| 
D E F A | 
B3A/ F/ | 
A2B d | 
B2A F/ E/ | 
F A A F/ E/ | 
F E/ D/B,2 | 
F2E F | 
AE2D | 
B, D D B,/ A,/ | 
B,4- | 
B,3z | 
B B B B | 
B d e d | 
B2A F/ A/ | 
B2A B/ d/ | 
B2A F/ E/ | 
F A A F/ E/ | 
F E/ D/B,2 | 
F2E F | 
AE2D | 
B, D D B,/ A,/ | 
B,4- | 
B,3z | 
B, B, B, B, | 
D E F A | 
B3A/ F/ | 
A2B d | 
B2A F/ E/ | 
F A A F/ E/ | 
F E/ D/B,2 | 
F2E F | 
AE2D | 
B, D D B,/ A,/ | 
B,4- | 
B,3z | 
B B B B | 
B d e d | 
B2A F/ A/ | 
B2A B/ d/ | 
B2A F/ E/ | 
F A A F/ E/ | 
F E/ D/B,2 | 
F2E F | 
AE2D | 
B d d B/ A/ | 
B4- | 
B3z |]  



